X: 1
T: Tatter Jack Walsh
R: jig
M: 6/8
L: 1/8
%Z: Modified by Megan Ward    
K: Dmix
|: fef ded | cAB c2 A | dcA GFG| AdA ^cde |
fef ded | cAB c2 A | dcA GFG | Ad^c d3 :|
|: dfa afe | dfa agf | gef gea | gef gfg |
afd fed | cAB BcA | dcA GFG| Ad^c d3 :|
